X:1
T:- # -
%%score [ 1 2 3 4 ]
L:1/8
M:4/4
K:F
V:1 treble nm="Sopran" snm=" "
V:2 treble nm="Alt"
V:3 treble-8 nm="Tenor"
V:4 bass nm="Baß"
V:1
"^Christobal de Morales" c4 c2 c2 | A4 B4 | c4 z2 c2 |"^IV.  Martinus Abrahae" B2 A2 G2 c2- | %4
w: Mar- ti- nus|A- bra-|hae si-|nu lae- tus ex-|
"^5" c2 d3 c c2- | c2 =B2"^1546" c4 | z2 c2 B2 A2 | G4 A3 B | cd c3 B B2 |"^10" A2 G2 A4 | %10
w: * ci * *|* pi- tur,|si- nu lae-|tus ex- *||ci- * pi-|
 G2 F2 G2 B2 | A2 G3 F F2- | F2 E2 F3 G | AB A3 G/F/ G2 |"^15" F4 z4 | z2 c4 B2 | c4 F4 | %17
w: tur, si- nu lae-|\-tus ex- * *|* * ci- *|* * pi * * *|~tur.|Mar- ti-|\-nus hic|
 A2 G2 c3 d | ec d2 c2 e2 |"^20" dc c4 =B2 | c8 | z2 c4 B2 | c2 G2 B2 A2 | c3 d ec e2 | %24
w: pau- per et *|* * * mo- *|* * * di-|~cus,|Mar- ti-|\-nus hic pau- per|et * * * *|
"^25" d2 c4 =B2 | c4 z4 | z8 | z4 z2 c2 | B2 A2 G3 A |"^30" BG A2 G4 | z2 c4 B2 | A2 G2 d4- | %32
w: mo- * di-|cus||cae-|lum di- * *|* * * ves,|cae- lum|di~- ves in-|
 d4 c2 B2- | BA A3 G G2 |"^35" A4 z2 c2 | c2 c2 A2 B2 | c4 c3 B | A2 G2 F3 G | AB c4 B2 | %39
w: * gre *|* * * * di-|tur, hym-|nis cae- le- sti-|bus ho- no-|\-ra- * * *||
"^40" A2 G3 F F2- | F2 E2 F4 | z8 | z8 | z8 |"^45" z4 z2 c2 | c2 c2 A2 B2 | c4 c3 B | AG A4 F2 | %48
w: |* * ~tur,||||hym-|nis cae- le- sti-|bus ho- no-|\-ra * * *|
 G4 F4 |"^50" z2 c2 c2 c2 | A2 B2 c4 | c4 B2 d2- | dc c4 BA | G2 A4 G2- |"^55" GF F4 E2 | F8- | %56
w: * ~tur,|hym- nis cae-|le- sti- bus|ho- no- ra-||||~tur.|
 F8- | F8 |] %58
w: ||
V:2
 z8 | z8 | F4 F2 F2 | D4 E4 | F4 z2 F2 | E2 D2 C2 A2- | AGFE F2 F2 | E4 z2 F2 | E2 C2 G2 F2- | %9
w: ||Mar- ti- nus|A- bra-|hae si-|nu lae- tus ex-|* * * * ci- pi-|~tur, si-|nu lae- tus ex|
 FD E2 F4 | D3 C B,CDB, | C4 D4 | C4 z2 C2 | C2 C2 D2 E2 | D3 E F4 | E4 z4 | z4 z2 F2- | %17
w: * * * ci-|pi * * * * *||~tur, si-|nu lae- tus ex-|ci- * pi-|~tur.|Mar-|
 F2 E2 F2 C2 | G2 B2 A2 G2 | A2 F2 G4 | z2 G4 F2 | G2 C2 E2 D2 | C2 G4 F2 | A2 G2 AG G2- | %24
w: * ti- nus hic|pau- per et mo-|* di- cus,|Mar- ti-|nus hic pau- per|et mo- *||
 GF F2 G4 | E3 F G4- | G4 z4 | z2 F4 E2 | D2 C3 DEC | D4 z2 G2- | G2 F2 E2 D2- | D2 B4 A2- | %32
w: |di- * cus||cae- lum|di~- * * * *|~ves, cae-|* lum di~- ~ves|* in- gre-|
 AG G2 A2 GF | E2 F2 D4 | z2 F2 F2 E2 | F2 E2 D3 C | A,2 A4 G2 | F2 G2 A2 F2- | FE/D/ EF G4 | %39
w: |* di- ~tur,|hym- nis cae-|le- sti- bus *|* ho- no-|\-ra- * * *||
 F2 E2 D4 | C8- | C4 z4 | z8 | z8 | z2 F2 F2 E2 | A2 G3 F F2- | F2 E2 F2 C2 | E2 F3 ECD | %48
w: |~tur,||||hym- nis cae-|le- * * *|* sti- bus, ho-|\-no- ra- * * *|
 E4 z2 F2 | F2 E2 A2 G2- | GF F4 E2 | F2 A3 G G2 | E2 F2 G4 | z4 z2 C2 | D4 C3 B, | %55
w: tur, hym-|nis cae- le *|* * * sti-|bus ho- no- ra-|* * ~tur,|ho-|\-no- ra- *|
 A,G,A,B, C2 A,2 | B,A,B,C D4 | C8 |] %58
w: ||~tur.|
V:3
 z8 | z8 | z8 | z8 | z8 | z8 | z8 | z2 c2 c2 c2 | A4 B4 | c4 z2 c2 | B2 A2 G2 F2- | F2 G2 A2 B2 | %12
w: |||||||Mar- ti- nus|A- bra-|hae si-|nu lae- tus ex-|* ci- * *|
 G4 F4- | F4 z2 c2- | c2 B2 c2 F2 | c2 A2 c2 d2- | dc c4 B2 | c8 | z2 f4 e2 | f2 c2 d4 | c2 e4 c2 | %21
w: pi- tur.|* Mar-|* ti- nus hic|pau- per et mo-|* * * di-|cum,|Mar- ti-|nus hic pau-|per et mo|
 d2 f2 g3 f | ed e2 d4 | c4 z4 | f4 e2 d2 | c4 d4 | c2 B2 AB c2- | c2 B2 c4 | z8 | z2 f4 e2 | %30
w: |* * * di-|cus|cae- lum di~-|ves in-|gre- * * * *|* di~- ~tur,||cae- lum|
 d2 c2 g4 | f2 e2 d3 e | f2 d2 f2 d2 | c3 d B4 | A4 z4 | z8 | z4 z2 c2 | c2 c2 A2 B2 | c4 d4- | %39
w: di~- ves in-|gre- * * *||* * di-|~tur,||hym-|\-nis cae- le- sti-|bus ho-|
 d2 G2 A2 B2 | G4 F4 | z2 c2 c2 c2 | A2 B2 c2 f2 | e2 d3 c c2- | c2 =B2 c4- | c4 z2 f2 | g4 f4 | %47
w: * no- ra *|* ~tur,|hym- nis cae-|\-le- sti- bus ho-|no- ra * *|* * tur,|* ho-|no- ra-|
 c4 z2 c2 | c2 c2 A2 B2 | c8 | z2 f2 g4 | f4 B4 | z2 c2 d4 | c4 F2 G2 | A2 B2 G4 | F3 G AFfe | %56
w: ~\-tur, hym-|nis cae- le- sti-|bus|ho- no-|ra tur,|ho- no-|ra- * *|* * tur,|ho- no- ra- * * *|
 dcBA B4 | A8 |] %58
w: |~tur.|
V:4
 z8 | z8 | z8 | z8 | z8 | z4 F,4 | F,2 F,2 D,4 | E,4 F,4 | z2 F,2 _E,2 D,2 | C,4 F,4 | %10
w: |||||Mar-|\-ti- nus A-|bra- hae|si- nu lae-|tus ex-|
 G,2 D,2 _E,2 B,,2 | F,2 E,2 D,2 B,,2 | C,4 F,4 | z2 F,4 E,2 | F,2 B,,2 F,2 D,2 | A,6 G,2 | %16
w: ci * * *||pi- tur.|Mar- ti-|nus hic pau- per|et mo-|
 F,2 E,2 D,4 | C,4 z2 C2- | C2 B,2 C4 | %19
w: * * di-|cus, Mar-|* ti- nus|
"^© Michael Wendel 2005\nThis edition may be freely duplicated, distributed, performed or recorded for non-profit performance or use.\n" F,2 A,2 G,4 | %20
w: hic pau- per|
 C,2 C4 A,2 | B,2 A,2 G,4 | C,4 z4 | z4 C4 | B,2 A,2 G,4 | A,4 G,2 F,2 | E,F,G,E, F,2 E,2 | %27
w: et mo *|* * di-|\-cus|cae-|lum di- ves|in- gre *||
 D,4 C,4 | z8 | z4 C4 | B,2 A,2 G,3 F, | D,2 G,4 F,2 | B,3 A, F,2 G,2 | A,2 F,2 G,4 | F,3 E, C,4 | %35
w: \-di~- ~tur,||cae-|lum di~- ves *|* in- gre-|||di- * ~tur,|
 z8 | z2 F,2 F,2 E,2 | F,2 E,2 D,4 | C,4 G,3 F, | D,2 E,2 F,2 B,,2 | C,4 z2 F,2 | F,2 E,2 F,2 C,2 | %42
w: |hym- nis cae-|\-le- sti- bus|ho- no- *|ra * * *|~tur, hym-|nis cae- le- sti-|
 D,4 C,2 D,2 | E,2 F,3 E, C,2 | D,4 C,4 | z2 C2 D4 | C4 F,4 | z2 F,2 F,2 F,2 | C,4 D,4 | %49
w: \-bus ho- no-|ra * * *|* ~tur,|ho- no-|ra- ~tur,|hym- nis cae-|le- sti-|
 C,4 z2 C2 | D4 C4 | F,4 z2 G,2 | A,4 G,4 | C,2 F,4 E,2 | D,2 B,,2 C,4 | z2 F,4 F,2 | B,,8 | F,8 |] %58
w: bus ho-|no- ra-|~tur, ho-|\-no- ra-|~tur, ho- no-|\-ra- * ~tur,|ho- no-|ra-|~tur.|

